X: 10203
T: Dirt On The Floor
R: hornpipe
M: 4/4
K: Bminor
|:dc|(3BcB FB DFBd|(3cBA ef edcB|(3BcB FB DFBd|(3cBA [F2A2][E2A2]EA|
(3BcB FB DFBd|(3cBA ef edcB|Aceg fedc|B2 [G2B2][F2B2]:|
|:de|fgfe dedc|dcBd cBA2|fgfe dcde|fB(3dcB b2de|
fgfe dedc|dcBd cBAG|FGBc defg|f2 d2 B2:|

